X: 4
T: Hilu hilu
O: Trad Finland
Z: John Chambers <jc@trillian.mit.edu>
M: 2/4
L: 1/16
K: D
|: z2 | "D"AAAA AAAA | "G"B2BB BAGF | "A7"E2EE EGB2 | "D"A4 A2 :|
|: AA | "D"DDDD "E7"D2DD | "A7"C2E2 G2GG | "D"F2FF "A7"E2E2 | "D"D4 D2 :|
